src/pos-icons/arrow-down-box.svg

<svg height="24" viewBox="0 0 24 24" width="24" xmlns="http://www.w3.org/2000/svg"><path d="m3 5a2 2 0 0 1 2-2h14a2 2 0 0 1 2 2v14a2 2 0 0 1 -2 2h-14c-1.11 0-2-.9-2-2zm8 1v8.5l-3.5-3.5-1.42 1.42 5.92 5.92 5.92-5.92-1.42-1.42-3.5 3.5v-8.5z"/></svg>

<?xml version="1.0" encoding="UTF-8"?><!DOCTYPE svg PUBLIC "-//W3C//DTD SVG 1.1//EN" "http://www.w3.org/Graphics/SVG/1.1/DTD/svg11.dtd"><svg xmlns="http://www.w3.org/2000/svg" xmlns:xlink="http://www.w3.org/1999/xlink" version="1.1" id="mdi-arrow-down-box" width="24" height="24" viewBox="0 0 24 24"><path d="M3,5A2,2 0 0,1 5,3H19A2,2 0 0,1 21,5V19A2,2 0 0,1 19,21H5C3.89,21 3,20.1 3,19V5M11,6V14.5L7.5,11L6.08,12.42L12,18.34L17.92,12.42L16.5,11L13,14.5V6H11Z" /></svg>
